X: 43279
T: Woodcock Hill
R: hornpipe
M: 4/4
K: Dmajor
A2|dcdf ecAc|dBGB AFDF|EGFA GBgf|edcB AABc|
dcdf e^deg|fefg afdA|BdcB AGFE|D2 d2 d2:|
B2|A^GAc ecAc|edcB Adfa|gfeg fedf|(3efe (3dcB (3ABA (3GFE|
DFAd EGBd|FAdf afda|BdcB (3ABA (3GFE|D2 (3Bcd D2:|

